dist/img/logo_footer.svg

<svg width="156" height="50" viewBox="0 0 156 50" fill="none" xmlns="http://www.w3.org/2000/svg">
<g opacity="0.42" clip-path="url(#clip0_78_1329)">
<path d="M35.6261 45.4326L28.9917 38.8262H24.4082L35.6261 49.9998L46.8394 38.8262H42.256L35.6261 45.4326Z" fill="white"/>
<path d="M35.6261 4.56726L42.256 11.1736H46.8394L35.6261 0L24.4082 11.1736H28.9917L35.6261 4.56726Z" fill="white"/>
<path d="M15.1208 25.0004L23.4544 16.6963H18.8709L12.1578 23.3857H3.24084V16.6963H0V25.0004V26.6151V33.3045H3.24084V26.6151H12.1578L18.8709 33.3045H23.4544L15.1208 25.0004Z" fill="white"/>
<path d="M56.1312 25.0004L47.793 33.3045H52.3811L60.7146 25.0004L52.3811 16.6963H47.7976L56.1312 25.0004Z" fill="white"/>
<path d="M27.9965 33.3045V27.9899H44.6637C47.9971 27.9899 47.9971 25.0004 47.9971 25.0004V19.6858C47.9971 19.6858 47.9971 16.6963 44.6637 16.6963H24.6631V33.3045H27.9965ZM27.9965 19.6858H44.6637V25.0004H27.9965V19.6858Z" fill="white"/>
<path d="M82.0166 22.3469H79.5165L75.9747 17.9873H70.1273V22.3469H68.0439V11.9668H70.1273V16.1189H75.8683L79.5165 11.9668H82.0166L77.6414 16.9493L82.0166 22.3469Z" fill="white"/>
<path d="M98.1739 20.4785C98.1865 20.7272 98.1467 20.9758 98.0569 21.2081C97.9671 21.4405 97.8294 21.6516 97.6527 21.8276C97.4761 22.0037 97.2643 22.1409 97.031 22.2304C96.7978 22.3198 96.5484 22.3595 96.2989 22.3469H85.4652C83.6133 22.3469 83.6133 20.4785 83.6133 20.4785V11.9668H85.6967V20.4785H96.1137V11.9668H98.1971L98.1739 20.4785Z" fill="white"/>
<path d="M113.29 22.3469H101.415V11.9668H103.498V20.4785H113.29V22.3469Z" fill="white"/>
<path d="M116.995 22.3469H114.911V11.9668H116.995V22.3469Z" fill="white"/>
<path d="M132.477 11.9668C132.477 11.9668 134.352 11.9668 134.352 13.8352V16.5341C134.186 16.5341 134.027 16.5997 133.91 16.7165C133.792 16.8333 133.727 16.9917 133.727 17.1569C133.727 17.322 133.792 17.4805 133.91 17.5973C134.027 17.7141 134.186 17.7797 134.352 17.7797V20.4785C134.352 20.4785 134.352 22.3469 132.477 22.3469H119.772V11.9668H132.477ZM132.273 13.8352H121.856V16.1189H132.273V13.8352ZM132.273 17.9873H121.856V20.4785H132.273V17.9873Z" fill="white"/>
<path d="M139.217 22.3469H137.134V11.9668H139.217V22.3469Z" fill="white"/>
<path d="M144.541 11.9668L153.926 19.8557V11.9668H156.009V22.3469H153.926L144.555 14.458V22.3469H142.472V11.9668H144.541Z" fill="white"/>
<path d="M82.6277 29.5211V32.8427C82.6244 33.1051 82.5665 33.3639 82.4579 33.6029C82.3493 33.8418 82.1921 34.0558 81.9964 34.2313C81.8007 34.4069 81.5707 34.5401 81.3207 34.6227C81.0708 34.7052 80.8065 34.7354 80.5443 34.7111H70.1273V38.0328H68.0439V27.6526H80.5443C80.8065 27.6284 81.0708 27.6586 81.3207 27.7411C81.5707 27.8237 81.8007 27.9569 81.9964 28.1325C82.1921 28.308 82.3493 28.522 82.4579 28.7609C82.5665 28.9999 82.6244 29.2587 82.6277 29.5211ZM70.1273 29.5211V32.8427H80.5443V29.5211H70.1273Z" fill="white"/>
<path d="M98.1745 38.0328L95.6745 34.7111H87.5492V38.0328H85.4658V27.6526H97.9662C98.2284 27.6284 98.4927 27.6586 98.7426 27.7411C98.9925 27.8237 99.2226 27.9569 99.4183 28.1325C99.614 28.308 99.7711 28.522 99.8798 28.7609C99.9884 28.9999 100.046 29.2587 100.05 29.5211V32.8427C100.046 33.1051 99.9884 33.3639 99.8798 33.6029C99.7711 33.8418 99.614 34.0558 99.4183 34.2313C99.2226 34.4069 98.9925 34.5401 98.7426 34.6227C98.4927 34.7052 98.2284 34.7354 97.9662 34.7111L100.466 38.0328H98.1745ZM97.9662 29.5211H87.5492V32.8427H97.9662V29.5211Z" fill="white"/>
<path d="M105.373 38.0325H103.29V27.6523H105.373V38.0325Z" fill="white"/>
<path d="M110.698 27.6523L120.073 35.5413V27.6523H122.156V38.0325H120.073L110.698 30.1436V38.0325H108.614V27.6523H110.698Z" fill="white"/>
<path d="M138.518 29.5208H132.272V38.0325H130.189V29.5208H123.938V27.6523H138.518V29.5208Z" fill="white"/>
</g>
<defs>
<clipPath id="clip0_78_1329">
<rect width="156" height="50" fill="white"/>
</clipPath>
</defs>
</svg>

<svg width="156" height="50" fill="none" xmlns="http://www.w3.org/2000/svg"><g opacity=".42" clip-path="url(#clip0_78_1329)" fill="#fff"><path d="M35.626 45.433l-6.634-6.607h-4.584L35.626 50 46.84 38.826h-4.583l-6.63 6.607zm0-40.866l6.63 6.607h4.583L35.626 0 24.408 11.174h4.584l6.634-6.607zM15.12 25l8.334-8.304h-4.583l-6.713 6.69H3.24v-6.69H0v16.609h3.24v-6.69h8.918l6.713 6.69h4.583L15.121 25zm41.011 0l-8.338 8.304h4.588L60.715 25l-8.334-8.304h-4.583L56.13 25z"/><path d="M27.997 33.304V27.99h16.667c3.333 0 3.333-2.99 3.333-2.99v-5.314s0-2.99-3.333-2.99h-20v16.608h3.332zm0-13.618h16.667V25H27.996v-5.314zm54.02 2.661h-2.5l-3.542-4.36h-5.848v4.36h-2.083v-10.38h2.083v4.152h5.741l3.648-4.152h2.5l-4.375 4.982 4.376 5.398zm16.157-1.868a1.774 1.774 0 01-.521 1.349 1.787 1.787 0 01-1.354.519H85.465c-1.852 0-1.852-1.869-1.852-1.869v-8.511h2.084v8.511h10.417v-8.511h2.083l-.023 8.511zm15.116 1.868h-11.875v-10.38h2.083v8.511h9.792v1.869zm3.705 0h-2.084v-10.38h2.084v10.38zm15.482-10.38s1.875 0 1.875 1.868v2.7a.625.625 0 00-.625.622.625.625 0 00.625.623v2.698s0 1.869-1.875 1.869h-12.705v-10.38h12.705zm-.204 1.868h-10.417v2.284h10.417v-2.284zm0 4.152h-10.417v2.492h10.417v-2.492zm6.944 4.36h-2.083v-10.38h2.083v10.38zm5.324-10.38l9.385 7.889v-7.89h2.083v10.38h-2.083l-9.371-7.888v7.889h-2.083v-10.38h2.069zM82.628 29.521v3.322a1.895 1.895 0 01-1.307 1.78c-.25.082-.514.112-.777.088H70.127v3.322h-2.083v-10.38h12.5a1.915 1.915 0 011.452.48 1.901 1.901 0 01.632 1.388zm-12.5 0v3.322h10.416V29.52H70.127zm28.046 8.512l-2.5-3.322H87.55v3.322h-2.083v-10.38h12.5a1.915 1.915 0 011.452.48 1.902 1.902 0 01.632 1.388v3.322a1.907 1.907 0 01-.632 1.388 1.908 1.908 0 01-1.452.48l2.5 3.322h-2.291zm-.208-8.512H87.55v3.322h10.417V29.52zm7.407 8.511h-2.083v-10.38h2.083v10.38zm5.325-10.38l9.375 7.89v-7.89h2.083v10.38h-2.083l-9.375-7.888v7.889h-2.084v-10.38h2.084zm27.82 1.868h-6.246v8.512h-2.083v-8.511h-6.251v-1.869h14.58v1.869z"/></g><defs><clipPath id="clip0_78_1329"><path fill="#fff" d="M0 0h156v50H0z"/></clipPath></defs></svg>
